Dominus_Dark_Funeral/22/apps/emacs.svg

<svg xmlns="http://www.w3.org/2000/svg" width="24" height="24" viewBox="0 0 6.35 6.35"><defs><linearGradient id="a"><stop offset="0" stop-color="#040000"/><stop offset="1" stop-color="#060000" stop-opacity="0"/></linearGradient></defs><path d="M5.28.27c-.22 0-.4.04-.57.1.2-.01.61.07.62.23 0 .18-.21.18-.53.17C3.8.7 2.32.3 1.9.55a.48.48 0 0 0-.26.42c0 .23.2.6.56.96.29.3.8.7 1.13.9.25.14.25.16.05.1a4.23 4.23 0 0 0-2.74.22c-.38.19-.6.51-.56.82.03.23.15.43.4.67.2.21.4.34.79.57.53.3 1.28.55 2.09.72.1.02 1.77.35 2.32-.04.35-.24.38-.78-.15-1.05.06.5-.27.6-.94.56A7.04 7.04 0 0 1 2.78 5c-.6-.2-1.23-.6-1.11-.99.32-.83 2.72-.59 3.16-.62-.54-.4-2.27-1.55-1.78-2.14.22-.24.84-.13 1.56 0 .66.12 1.64.48 1.66-.34a.6.6 0 0 0-.34-.54c-.1-.05-.19-.1-.65-.1z" fill="#e6e6e6"/></svg>

<?xml version="1.0" encoding="UTF-8" standalone="no"?>
<svg
   xmlns:dc="http://purl.org/dc/elements/1.1/"
   xmlns:cc="http://creativecommons.org/ns#"
   xmlns:rdf="http://www.w3.org/1999/02/22-rdf-syntax-ns#"
   xmlns:svg="http://www.w3.org/2000/svg"
   xmlns="http://www.w3.org/2000/svg"
   xmlns:sodipodi="http://sodipodi.sourceforge.net/DTD/sodipodi-0.dtd"
   xmlns:inkscape="http://www.inkscape.org/namespaces/inkscape"
   width="24"
   height="24"
   viewBox="0 0 6.35 6.35"
   version="1.1"
   id="svg11"
   sodipodi:docname="emacs.svg"
   inkscape:version="0.92.4 (5da689c313, 2019-01-14)">
  <metadata
     id="metadata15">
    <rdf:RDF>
      <cc:Work
         rdf:about="">
        <dc:format>image/svg+xml</dc:format>
        <dc:type
           rdf:resource="http://purl.org/dc/dcmitype/StillImage" />
        <dc:title></dc:title>
      </cc:Work>
    </rdf:RDF>
  </metadata>
  <sodipodi:namedview
     pagecolor="#ffffff"
     bordercolor="#666666"
     borderopacity="1"
     objecttolerance="10"
     gridtolerance="10"
     guidetolerance="10"
     inkscape:pageopacity="0"
     inkscape:pageshadow="2"
     inkscape:window-width="1142"
     inkscape:window-height="480"
     id="namedview13"
     showgrid="false"
     inkscape:zoom="9.8333333"
     inkscape:cx="1.2711864"
     inkscape:cy="12"
     inkscape:window-x="0"
     inkscape:window-y="25"
     inkscape:window-maximized="0"
     inkscape:current-layer="svg11" />
  <defs
     id="defs7">
    <linearGradient
       id="a">
      <stop
         offset="0"
         stop-color="#040000"
         id="stop2" />
      <stop
         offset="1"
         stop-color="#060000"
         stop-opacity="0"
         id="stop4" />
    </linearGradient>
  </defs>
  <path
     d="M 5.28,0.27 C 5.06,0.27 4.88,0.31 4.71,0.37 4.91,0.36 5.32,0.44 5.33,0.6 5.33,0.78 5.12,0.78 4.8,0.77 3.8,0.7 2.32,0.3 1.9,0.55 A 0.48,0.48 0 0 0 1.64,0.97 c 0,0.23 0.2,0.6 0.56,0.96 0.29,0.3 0.8,0.7 1.13,0.9 0.25,0.14 0.25,0.16 0.05,0.1 A 4.23,4.23 0 0 0 0.64,3.15 C 0.26,3.34 0.04,3.66 0.08,3.97 0.11,4.2 0.23,4.4 0.48,4.64 0.68,4.85 0.88,4.98 1.27,5.21 1.8,5.51 2.55,5.76 3.36,5.93 3.46,5.95 5.13,6.28 5.68,5.89 6.03,5.65 6.06,5.11 5.53,4.84 5.59,5.34 5.26,5.44 4.59,5.4 A 7.04,7.04 0 0 1 2.78,5 C 2.18,4.8 1.55,4.4 1.67,4.01 1.99,3.18 4.39,3.42 4.83,3.39 4.29,2.99 2.56,1.84 3.05,1.25 3.27,1.01 3.89,1.12 4.61,1.25 5.27,1.37 6.25,1.73 6.27,0.91 A 0.6,0.6 0 0 0 5.93,0.37 C 5.83,0.32 5.74,0.27 5.28,0.27 Z"
     id="path9"
     inkscape:connector-curvature="0"
     style="fill:#e6e6e6" />
</svg>
